Hatter-kde-dark/actions/22/unique_constraint.svg

<?xml version="1.0" encoding="UTF-8"?>
<svg viewBox="0 0 22 22" xmlns="http://www.w3.org/2000/svg">
 <defs id="defs3051">
  <style id="current-color-scheme" type="text/css">.ColorScheme-Text {
        color:#dedede;
      }</style>
 </defs>
 <path class="ColorScheme-Text" d="m5 3v10a6 6 0 0 0 6 6 6 6 0 0 0 6-6v-10h-1v10a5 5 0 0 1-5 5 5 5 0 0 1-5-5v-10h-1z" fill="currentColor"/>
</svg>

<svg xmlns="http://www.w3.org/2000/svg" viewBox="0 0 22 22">
  <defs id="defs3051">
    <style type="text/css" id="current-color-scheme">
      .ColorScheme-Text {
        color:#dedede;
      }
      </style>
  </defs>
 <path 
    style="fill:currentColor;fill-opacity:1;stroke:none" 
    d="M 5 3 L 5 13 A 6 6 0 0 0 11 19 A 6 6 0 0 0 17 13 L 17 3 L 16 3 L 16 13 A 5 5 0 0 1 11 18 A 5 5 0 0 1 6 13 L 6 3 L 5 3 z "
	class="ColorScheme-Text"
    />  
</svg>
